X:76
T:St Paul's Steeple. (p)1651.PLFD.076
T:Paul's Steeple. (p)1651.PLFD.076
M:C
L:1/4
Q:1/2=100
S:Playford, Dancing Master,1st Ed.,1651.
O:England
H:1651.
Z:Chris Partington.
K:F
"_Edition 4 onwards"f>ede|f2fg/f/|eccc|c2cc|
d>cde|f2gf/g/|aaaa|a2ag|
ffff|f2fe/f/|gggg|g2gf/g/|
aagf|edeg|^fdd>c|d4:|
